X: 1
T: Gan Ainm
M: 2/4
L: 1/8
R: polka
K: Dmaj
|:(fe)|d2 F2|A>B AF|G2 E2|E3 A|c2 (cB)|
A2 (Bc)|1 e2 e2|e2 :|2 d2 d2|d3 A ||
|: d2 (df)|a2 (af)|g2 (ge)|B3 d|c2 (cB)|
A2 (Bc)|1 e2 e2|e3 A :|2 d2 d2|d4 ||
